MonoIcons/scalable/status/semi-starred-symbolic-rtl.svg

<?xml version="1.0" encoding="UTF-8"?>
<svg height="16px" viewBox="0 0 16 16" width="16px" xmlns="http://www.w3.org/2000/svg">
    <path d="m 8.003906 0 c 0.429688 0 0.816406 0.277344 0.953125 0.683594 l 1.449219 4.339844 l 4.589844 -0.015626 c 0.980468 -0.007812 1.382812 1.253907 0.582031 1.816407 l -3.628906 2.558593 l 1.5 4.285157 c 0.316406 0.902343 -0.6875 1.691406 -1.488281 1.171875 l -4.003907 -2.59375 l -3.898437 2.585937 c -0.796875 0.53125 -1.8125 -0.257812 -1.496094 -1.164062 l 1.503906 -4.289063 l -3.644531 -2.574218 c -0.792969 -0.5625 -0.3984375 -1.808594 0.574219 -1.8125 l 4.660156 -0.015626 l 1.402344 -4.285156 c 0.132812 -0.410156 0.515625 -0.68749975 0.945312 -0.68749975 z m 0.003906 4.210938 l -0.679687 2.070312 c -0.132813 0.410156 -0.511719 0.691406 -0.941406 0.695312 l -2.253907 0.007813 l 1.699219 1.199219 c 0.367188 0.257812 0.515625 0.726562 0.367188 1.148437 l -0.765625 2.191407 l 1.964844 -1.304688 c 0.199218 -0.058594 0.40625 -0.109375 0.609374 -0.164062 z m 0 0" fill="#2e3436"/>
</svg>

<svg width="16" height="16" viewBox="0 0 16 16" fill="none" xmlns="http://www.w3.org/2000/svg">
<g clip-path="url(#clip0_231_1019)">
<path d="M8.00393 0C8.43361 0 8.82033 0.277344 8.95705 0.683594L10.4063 5.02344L14.9961 5.00781C15.9766 5 16.3789 6.26172 15.5781 6.82422L11.9492 9.38281L13.4492 13.668C13.7656 14.5703 12.7617 15.3594 11.961 14.8398L7.95705 12.2461L4.05861 14.832C3.26174 15.3633 2.24611 14.5742 2.56252 13.668L4.06643 9.37891L0.421895 6.80469C-0.371074 6.24219 0.0234578 4.99609 0.996114 4.99219L5.65627 4.97656L7.05861 0.691406C7.19143 0.28125 7.57424 0.00390625 8.00393 0.00390625V0ZM8.00783 4.21094L7.32815 6.28125C7.19533 6.69141 6.81643 6.97266 6.38674 6.97656L4.13283 6.98438L5.83205 8.18359C6.19924 8.44141 6.34768 8.91016 6.19924 9.33203L5.43361 11.5234L7.39846 10.2188C7.59768 10.1602 7.80471 10.1094 8.00783 10.0547V4.21094Z" fill="#2E3436"/>
</g>
<defs>
<clipPath id="clip0_231_1019">
<rect width="16" height="16" fill="white"/>
</clipPath>
</defs>
</svg>
